X:1
T:Baja, 76.76 D
T:Baja, 76.76 D
T:E. Locke, 1870
T:Public Domain Courtesy of the Cyber Hymnal™
C:E. Locke, 1870
Z:Public Domain
Z:Courtesy of the Cyber Hymnal™
%%score ( 1 2 ) ( 3 4 )
L:1/8
Q:1/4=100
M:3/4
K:A
V:1 treble 
V:2 treble 
V:3 bass 
V:4 bass 
V:1
 E2 | [CA]3 [Ec] [GB][Gd] | [Ac]2 [Ae]2 [EA]2 | [FB]3 [Fd] [EG][EB] | (c2 B2) E2 | %5
 [CA]3 [Ec] [GB][Gd] | [Ac]2 [Ee]2 [Ec]2 | [GB]3 [FA] [EG][^DF] | E4 ([Ac]>[Bd]) | %9
 [ce]3 [Bd] [Ac][EB] | ([CA]>[EB]) [Ac]2 [ce]2 | [df]3 [ce] [Bd][Ac] | ([Ac]2 [GB]2) E2 | %13
 [CA]3 [Ec] [GB][Gd] | [Ac]2 [Ae]2 [EA]2 | [FB]3 [Fd] [DF][DG] | [CA]4 |] %17
V:2
 E2 | x6 | x6 | x6 | E4 E2 | x6 | x6 | x6 | E4 x2 | x6 | x6 | x6 | x4 E2 | x6 | x6 | x6 | x4 |] %17
V:3
 A,2 | [A,,A,]3 [A,,A,] [E,B,][E,B,] | A,2 [A,C]2 [C,C]2 | [D,B,]3 [B,,B,] [E,B,][E,G,] | %4
 (A,2 G,2) E,2 | [A,,A,]3 [A,,A,] [E,A,][E,B,] | A,2 [A,C]2 [A,,A,]2 | %7
 [B,,E,]3 [B,,B,] [B,,B,][B,,B,] | [E,G,]4 z2 | z6 | z4 C2 | D3 C B,A, | (A,2 G,2) E,2 | %13
 [A,,A,]3 [A,,A,] [E,B,][E,B,] | A,2 [A,C]2 [C,C]2 | [D,B,]3 [B,,B,] [E,B,][E,B,] | [A,,A,]4 |] %17
V:4
 A,2 | x6 | A,2 x4 | x6 | E,4 E,2 | x6 | A,2 x4 | x6 | x6 | x6 | x6 | x6 | x4 E,2 | x6 | A,2 x4 | %15
 x6 | x4 |] %17

